X: 2452
T: Ballintore, The
R: slide
M: 12/8
K: Gmajor
|:GA|B3 B2D B3 B2D|B2A B2c B2A G2B|A3 A2F A3 A2F|A2g f2e d2c B2A|
B3 B2D B3 B2D|B2A B2c B2A G2B|A3 A2F A3 A2g|f2d c2A G3 z:|
|:GA|B2D G2B D2B B2A|B2D B2D B2A G2B|A3 A2F A3 A2F|A2g f2e d2c B2A|
BcB B2D BcB B2D|B2A B2c B2A G2B|A3 A2F A3 A2g|f2d c2A G3 z:|
|:GA|B3 g3 B3 B2G|c2B c2e A3 A2B|c2d e2f g2f g2e|dcB c2A B3 G2A|
B3 g2f g2d B2G|c2B c2e A3 A2B|c2d e2f g2f g2e|d2B c2A G3 z:|
B2 B>D B2 B>D|B>AB>c B>AG>B|A2 A>F A2 A>F|A>gf>e d>cB>A|
B2 B>D B2 B>D|B>AB>c B>AG>B|A2 A>F A2 A>g|f>dc>A G2:|
B>DG>B D>BB>A|B>DB>D B>AG>B|A2 A>F A2 A>F|A>gf>e d>cB>A|
(3BcB B>D (3BcB B>D|B>AB>c B>AG>B|A2 A>F A2 A>g|f>dc>A G2:|
B2 g2 B2 B>G|c>Bc>e A2 A>B|c>de>f g>fg>e|(3dcB c>A B2 G>A|
B2 g>f g>dB>G|c>Bc>e A2 A>B|c>de>f g>fg>e|d>Bc>A G2:|
B2 BD B2 BD|BABc BAGB|A2 AF A2 AF|Agfe dcBA|
B2 BD B2 BD|BABc BAGB|A2 AF A2 Ag|fdcA G2:|
BDGB DBBA|BDBD BAGB|A2 AF A2 AF|Agfe dcBA|
(3BcB BD (3BcB BD|BABc BAGB|A2 AF A2 Ag|fdcA G2:|
B2 g2 B2 BG|cBce A2 AB|cdef gfge|(3dcB cA B2 GA|
B2 gf gdBG|cBce A2 AB|cdef gfge|dBcA G2:|
|:B2 E E2 D B2 E G2 A|B2 E E2 D A2 D F2 A|
B2 E E2 D c2 A B2 G|1 A2 G F2 G A2 D G2 A:|2 A2 G F2 G A2 c B2 A||
|:g3 g2 f d2 g g3|d2 g g3 d2 e f2 d|
|:e2 B B3 e2 f g2 d|e2 B B3 d2 B A2 B|

